X:80
T:St. Anne's Reel
S:Bernie Waugh
R:Reel
M:2/4
L:1/16
K:D
|:Ad|\
"D"f2fg fedB|A2F2 F2A2|"G"B2Bd BAGB|"D"AdFA DFAd|
"D"f2fg fedB|A2F2 F2 GA|"G"BGBd "A"cAce|"D"d2f2d2:|
|:ag|\
"D"fafd Adfa|"G"ag~gf g2 gf|"A"fgec Aceg|"D"ba~a^g a2 a=g|
"Bm"fafd Adfa|"G"ag~gf g2 gf|"A"fgec Acec|"D"d2f2d2:|

